-----BEGIN PGP PUBLIC KEY BLOCK-----

mQINBGoMkzABEAC80aQELfBViJjW/HfwD3BuX+7DWCe0v9mhIvuhsjikGDs7L9ut
8nSUaBXl/WLLLT+0QnohXcq2h350Ao93FQSBIsbSgXUFPjGRe/hgRb58COjdpRwZ
xkjI/xgpPRTQL1OZ10YWaRNu4Xc2lbcHBtN2nt+YdY4rU1MVVEdYUK+dWSAJ4r4h
cmu4SlSd9s6k+cx5ary4FYQU7liMTgTN+J4Txe6jYN8fjv5XJ9wp15UEJdKHS1pl
45IxGYBbJLSRoj699zx5RIA7kHd35emxl8GGV+Sro/bGXyJsOXpJ6Y7jpeLJKvAT
Gz45rMOcD1xm3JRRcBsnAk+O5iZv1ssX5FJ9ErlWEfBsaCszF7sXy5gcMrShQu9E
dFtNozyn06ijz65Un0fAUeVw7u5rPNr1qklxpXvlnLMShQQfUo3xbDh2bE+EdUru
BT9AVpu0haczM80yTURUwJXkfDqLOYdYLcMlULdQD5Q6lgSp9mauXJbVHPLdfzVm
Zhous5xVPfWBbvBVzVZsIMgRKQTGA8CypFifH81vw7cxPM8qTJoDQ02Zaz78esms
SrPRYl9IZfDpSplEKfzFtrFCKCGW4F8p//9m0rzyAY/qvegVUGEcL10D7NOyyP//
mhE5gSDCiBgEanH18rg/EoJ8lHPOSDpZwKD+A0yEzCzj/lpPZyVyFkzLvwARAQAB
tDRQdWxzZXRlIEFQVCBSZXBvc2l0b3J5IDxlbnJpcXVlbW9yZW5vdGVudEBnbWFp
bC5jb20+iQJRBBMBCgA7FiEEWBx9/EPWJ8UZbI7s6rV16YcwBd4FAmoMkzACGwMF
CwkIBwICIgIGFQoJCAsCBBYCAwECHgcCF4AACgkQ6rV16YcwBd4e7g//Uyxjx81r
uBefomZvlhzy1g15PkLSp8pqNsDPvjAHqQCjYt1BUVV+9sSFP1TM6AYL75JP9Z6f
MThTY839OP9Ay97y6zvj/VMdPoJTUtff3oDAf//bglJp8NwzyPfp30JiNY0x7Rhg
5HveqZ7HAlnmB5oOjDPGMx0GdMi0mSqjvwkeTZOsi0o1Ghp2LvnuWasJl2oaMxQC
z+Kg1lkB4T/mrnjhU4zzNYrZBRpZ0lEexmesmrVy4SaxT9WTWNNVU2MJcqTdCHdI
F8kXRJwzLuXf09lHwS8iTmm+7Dp/CnXFFYgPxWkT3YtsXvy42DvjQ/kRveRBrInb
bk2VriUHvEaAWaLaEFF1sV1TodCRyFAHVWPezwIEmORjdHfV44eZl0A+3zJyLXON
clBoXDp7nxf4fi4ZHftBPLoalEuZ4MHwUilnrfiSNvgeZ1+hquBkcjWJAEFtpSs8
O8a9XF5OrOWs6ZmzNwIbs2p22lfDengTIffbWW2P2ha7Wo848+VRUjWxT+eZZoJF
4Xo1VOGZ/PRfKcjd0opdUqjdvY0UjjoKNnLxYehOnVTuG1+lpe7aK3sroPRXctBS
RoqEPRu0BG61eADTfPkuwnqESNI/6gHlrKQNM6TkNV2buT2IcQJ9sNxhJoN3REN7
US46P0N+6qBEVqvMFKxCqQNJbu+aJEvLAyk=
=SAAS
-----END PGP PUBLIC KEY BLOCK-----
